X:161
T:Langstern Pony  
T:Langstrom's Pony
B:CRE2.046 (CapaillÃÂÃÂÃÂÃÂ­n Langstern)
F:file ID: cre.2/161lang_p
Q:160
L:1/8
M:6/8
R:jig
K:D
"A modal"
g|:fed cAA|cAc ecA|gf/e/d cAA|BGB dBG|
fed cAA|cAc efg|faf gfe|dBG Bcd:|
|:cee dff|cee ecA|cee dff|dBG Bcd|
cee dff|cee efg|faf gfe|dBG Bcd:|

%%%

